X:175
T:Rope Waltz, the
O:scotland
R:Waltz
M:3/4
A:Orkney 
K:G
d2|\
B2 Bc ^cd| G2 GB dg| f2 fg af| d4 =c2|\
B2 Bc ^cd| G2 GA B=c| A2 a2 g2 | f3 e dc|\
B2 Bc ^cd | G2 GB dg| f2 fg af| d4 c2 | \
B2 BA GB| A2 Ac AF| (G6 | G2) z2 ||\
ga|\
b2 b3a| g2 g3 a| g2 f2 e2| d3 g ab|\
c'2 c'3 b| a2 a3 g| f2 fg fe|d2 g2 a2 |\
b2 b3 a|g2 g3 a | g2 f2 e2 | d3 e dc|\
B2 BA GB| A2 Ac AF| (G6 | G2) z2 |]
